packages/ui/public/icons/trash.svg

<svg width="24" height="25" viewBox="0 0 24 25" fill="none" xmlns="http://www.w3.org/2000/svg">
<path opacity="0.12" d="M19 17.7V6.5H5V17.7C5 19.3802 5 20.2202 5.32698 20.862C5.6146 21.4265 6.07354 21.8854 6.63803 22.173C7.27976 22.5 8.11984 22.5 9.8 22.5H14.2C15.8802 22.5 16.7202 22.5 17.362 22.173C17.9265 21.8854 18.3854 21.4265 18.673 20.862C19 20.2202 19 19.3802 19 17.7Z" fill="white"/>
<path d="M19 6.5V17.7C19 19.3802 19 20.2202 18.673 20.862C18.3854 21.4265 17.9265 21.8854 17.362 22.173C16.7202 22.5 15.8802 22.5 14.2 22.5H9.8C8.11984 22.5 7.27976 22.5 6.63803 22.173C6.07354 21.8854 5.6146 21.4265 5.32698 20.862C5 20.2202 5 19.3802 5 17.7V6.5M16 6.5V5.7C16 4.5799 16 4.01984 15.782 3.59202C15.5903 3.21569 15.2843 2.90973 14.908 2.71799C14.4802 2.5 13.9201 2.5 12.8 2.5H11.2C10.0799 2.5 9.51984 2.5 9.09202 2.71799C8.71569 2.90973 8.40973 3.21569 8.21799 3.59202C8 4.01984 8 4.5799 8 5.7V6.5H16ZM3 6.5H21H3Z" stroke="white" stroke-width="2" stroke-linecap="round" stroke-linejoin="round"/>
</svg>

<svg width="24" height="25" fill="none" xmlns="http://www.w3.org/2000/svg"><path opacity=".12" d="M19 17.7V6.5H5v11.2c0 1.68 0 2.52.327 3.162a3 3 0 0 0 1.311 1.311c.642.327 1.482.327 3.162.327h4.4c1.68 0 2.52 0 3.162-.327a3 3 0 0 0 1.311-1.311C19 20.22 19 19.38 19 17.7Z" fill="#fff"/><path d="M19 6.5v11.2c0 1.68 0 2.52-.327 3.162a3 3 0 0 1-1.311 1.311c-.642.327-1.482.327-3.162.327H9.8c-1.68 0-2.52 0-3.162-.327a3 3 0 0 1-1.311-1.311C5 20.22 5 19.38 5 17.7V6.5m11 0v-.8c0-1.12 0-1.68-.218-2.108a2 2 0 0 0-.874-.874C14.48 2.5 13.92 2.5 12.8 2.5h-1.6c-1.12 0-1.68 0-2.108.218a2 2 0 0 0-.874.874C8 4.02 8 4.58 8 5.7v.8h8Zm-13 0h18H3Z" stroke="#fff" stroke-width="2" stroke-linecap="round" stroke-linejoin="round"/></svg>
